svgs/light/arrow-down-small-big.svg

<svg xmlns="http://www.w3.org/2000/svg" viewBox="0 0 576 512"><!--! Font Awesome Pro 6.6.0 by @fontawesome - https://fontawesome.com License - https://fontawesome.com/license (Commercial License) Copyright 2024 Fonticons, Inc. --><path d="M171.3 475.3l96-96c6.2-6.2 6.2-16.4 0-22.6s-16.4-6.2-22.6 0L176 425.4 176 48c0-8.8-7.2-16-16-16s-16 7.2-16 16l0 377.4L75.3 356.7c-6.2-6.2-16.4-6.2-22.6 0s-6.2 16.4 0 22.6l96 96c6.2 6.2 16.4 6.2 22.6 0zM352 80c0-8.8 7.2-16 16-16l64 0c8.8 0 16 7.2 16 16l0 64c0 8.8-7.2 16-16 16l-64 0c-8.8 0-16-7.2-16-16l0-64zm-32 0l0 64c0 26.5 21.5 48 48 48l64 0c26.5 0 48-21.5 48-48l0-64c0-26.5-21.5-48-48-48l-64 0c-26.5 0-48 21.5-48 48zm32 352l0-128c0-8.8 7.2-16 16-16l128 0c8.8 0 16 7.2 16 16l0 128c0 8.8-7.2 16-16 16l-128 0c-8.8 0-16-7.2-16-16zm-32 0c0 26.5 21.5 48 48 48l128 0c26.5 0 48-21.5 48-48l0-128c0-26.5-21.5-48-48-48l-128 0c-26.5 0-48 21.5-48 48l0 128z"/></svg>

<svg xmlns="http://www.w3.org/2000/svg" viewBox="0 0 576 512"><!--! Font Awesome Pro 6.5.2 by @fontawesome - https://fontawesome.com License - https://fontawesome.com/license (Commercial License) Copyright 2024 Fonticons, Inc. --><path d="M171.3 475.3l96-96c6.2-6.2 6.2-16.4 0-22.6s-16.4-6.2-22.6 0L176 425.4V48c0-8.8-7.2-16-16-16s-16 7.2-16 16V425.4L75.3 356.7c-6.2-6.2-16.4-6.2-22.6 0s-6.2 16.4 0 22.6l96 96c6.2 6.2 16.4 6.2 22.6 0zM352 80c0-8.8 7.2-16 16-16h64c8.8 0 16 7.2 16 16v64c0 8.8-7.2 16-16 16H368c-8.8 0-16-7.2-16-16V80zm-32 0v64c0 26.5 21.5 48 48 48h64c26.5 0 48-21.5 48-48V80c0-26.5-21.5-48-48-48H368c-26.5 0-48 21.5-48 48zm32 352V304c0-8.8 7.2-16 16-16H496c8.8 0 16 7.2 16 16V432c0 8.8-7.2 16-16 16H368c-8.8 0-16-7.2-16-16zm-32 0c0 26.5 21.5 48 48 48H496c26.5 0 48-21.5 48-48V304c0-26.5-21.5-48-48-48H368c-26.5 0-48 21.5-48 48V432z"/></svg>
